X:122
T:Reels simple chords 373
M:3/4
L:1/8
K:Em
D2 [G2G,2B,2D2] G2 | BA GB [d2G,2B,2D2] | d2 dc Bc | [d2G,2B,2D2] g2 f2 | e2 [d8G,8B,8D8] |
[D2D,2F,2A,2C2] | D2 FE DF | [A2D,2F,2A,2C2] A2 AG | FG [A2D,2F,2A,2C2] c2 |
A2 F4< [G4G,4B,4D4] | D2 | [G2G,2B,2D2] G2 BA | GB [d2G,2B,2D2] d2 |
dc Bc [d2G,2B,2D2] | g2 f2 e2 | [d8G,8B,8D8] | [D2D,2F,2A,2C2] D2 |
FE DF [A2D,2F,2A,2C2] | A2 AG FG | [A2D,2F,2A,2C2] c2 A2 | F4< [G4G,4B,4D4] |
d2 [d3G,3B,3D3] |B G2 G2 | [c2D,2F,2A,2C2]>A2 F2 | F2 [d2G,2B,2D2]>B2 |
G2 G2 [A8A,8^C8E8G8] | [d2G,2B,2D2]>B2 G2 | G2 [c2D,2F,2A,2C2]>A2 | F2 F2 [G2E,2G,2B,2] |
B2 A2 F2 | [G6G,6B,6D6] | d2 [d2G,2B,2D2]>B2 | G2 G2 [c3D,3F,3A,3C3] |
A F2 F2 | [d2G,2B,2D2]>B2 G2 | G2 [A8A,8^C8E8G8] | [d3G,3B,3D3] |
B G2 G2 | [c2D,2F,2A,2C2]>A2 F2 | F2 [G2E,2G,2B,2] B2 | A2 F4< [G4G,4B,4D4] |


